X: 16197
T: Green Ship, The
R: reel
M: 4/4
K: Eminor
|:dc|B2 e2 fgfe|B2 e2 g4|B2 Bc d2 d2|cBce d4|
B2 e2 fgfe|B2 e2 g4|gbag fagf|g2 e2 e2:|
|:dc|B2 G2 G3A|B2 G2 BdcB|c2 A2 A3B|c2 A2 cedc|
B2 G2 G3A|B2 GB g4|gbag fagf|g2 e2 e2:|

